!!!!SEGMENT: Jac3004-Robin_fit_tant--La_Couronne.krn
!!!id: Jac3004
!!!AGN: Chanson
!!!SCT: Bernstein (1984)
!!!voices: 3
!!!COM: Jacotin Frontin?
!!!OTL: Robin fit tant
**kern	**kern	**kern
*part3	*part2	*part1
*staff3	*staff2	*staff1
*I"Bassus	*I"Tenor	*I"Superius
*I'B	*I'T	*I'S
*clefF4	*clefGv2	*clefGv2
*k[]	*k[]	*k[]
*C:	*C:	*C:
*M2/1	*M2/1	*M2/1
*met(C|)	*met(C|)	*met(C|)
=1	=1	=1
1r	0r	1E
1E	.	2C
.	.	2E
=2	=2	=2
2C	1E	2E
1E	.	2.G
.	1C	.
.	.	4F
2G	.	[2E
=3	=3	=3
2.G	1E	4E]
.	.	8DL
.	.	8CJ
.	.	2.G
4F	.	.
1E	1G	.
.	.	4F
.	.	4E
.	.	4D
=4	=4	=4
2r	1G	1C
2E	.	.
2F	1F	1D
[2A	.	.
=5	=5	=5
4A]	1E	2r
4G	.	.
1G	.	2E
.	1r	2F
2F	.	[2A
=6	=6	=6
2G	1E	4A]
.	.	4G
2E	.	1G
2F	1D	.
[2A	.	2F
=7	=7	=7
4A]	1G	2G
4G	.	.
1G	.	2E
.	1A	1D
2F	.	.
=8	=8	=8
2.G	1E	1C
4F	.	.
4E	1G	2r
4D	.	.
2E	.	2B
=9	=9	=9
2AA	2F	2c
2BB	4E	2.d
.	4D	.
1C	1E	.
.	.	4c
.	.	[2c
=10	=10	=10
2r	1D	2c]
2GG	.	2B
2AA	1F	2c
2BB	.	[2d
=11	=11	=11
2C	2E	2d]
4BB	4D	1c
4AA	4C	.
2GG	1D	.
2GG	.	2B
=12	=12	=12
2.AA	1C	2c
.	.	2E
4GG	.	.
4AA	1r	2F
4BB	.	.
[2C	.	[2A
=13	=13	=13
4C]	1E	4A]
4BB	.	4G
4AA	.	1G
4GG	.	.
1AA	1C	.
.	.	2F#i
=14	=14	=14
1r	1E	2.G
.	.	4F
2r	1G	2E
2BB	.	2D
=15	=15	=15
2C	1G	2E
2.E	.	2C
.	1F	1A
4D	.	.
[2D	.	.
=16	=16	=16
2D]	1E	2r
2C	.	2E
1D	1r	2F
.	.	[2A
=17	=17	=17
2r	1E	4A]
.	.	4G
2E	.	1G
2F	1D	.
[2A	.	2F
=18	=18	=18
4A]	1G	2G
4G	.	.
1G	.	2E
.	1A	1D
2F	.	.
=19	=19	=19
2.G	1E	2r
.	.	2B
4F	.	.
4E	1G	2c
4D	.	.
2C	.	[2e
=20	=20	=20
2AA	2F	4e]
.	.	4d
2BB	4E	1d
.	4D	.
1C	1E	.
.	.	2c
=21	=21	=21
2GG	1D	2B
2.D	.	2.A
.	1F	.
4C	.	4B
4AA	.	4c
4BB	.	4d
=22	=22	=22
2C	2E	2G
2AA	4D	2c
.	4C	.
2GG	1D	2B
[2F	.	[2A
=23	=23	=23
4F]	1C	4A]
4E	.	4G
4E	.	1c
8DL	.	.
8CJ	.	.
1D	1r	.
.	.	2B
=24	=24	=24
1C	2c	2c
.	2c	2.A
2.AA	2c	.
.	.	4A
.	2c	2A
4AA	.	.
=25	=25	=25
2AA	2A	2A
2AA	2A	2.c
2.C	2G	.
.	.	4d
.	2G	2e
4D	.	.
=26	=26	=26
2E	2C	2e
2E	2C	2G
2r	2C	2G
[2E	2C	[2c
=27	=27	=27
2E]	1F	2c]
2D	.	4B
.	.	4A
2G	1E	2B
2GG	.	4G
.	.	4A
=28	=28	=28
4GG	1D	4B
4AA	.	4c
4BB	.	2d
4C	.	.
2D	1r	2A
2AA	.	2c
=29	=29	=29
4AA	2C	2c
4BB	.	.
4C	2C	4B
4D	.	4A
2E	2C	2G
2AA	2C	2A
=30	=30	=30
2BB	1G	2D
2C	.	2E
2D	1B	2F
[2E	.	2G
=31	=31	=31
2E]	1c	2r
2C	.	2A
2D	2B	2B
2E	4A	2c
.	4G	.
=32	=32	=32
2D	1A	2d
2.C	.	1e
.	1G	.
4D	.	.
4E	.	2c
4C	.	.
=33	=33	=33
2F	1r	2d
2E	.	2e
1F	1A	2d
.	.	[2c
=34	=34	=34
1G	1E	2c]
.	.	2B
1C	1G	2c
.	.	2e
=35	=35	=35
1r	1D	2d
.	.	2B
1A	1F	2c
.	.	2A
=36	=36	=36
2G	2E	2B
2E	4D	2c
.	4C	.
2F	2D	1A
2D	2D	.
=37	=37	=37
2.E	1C	2r
.	.	2e
4F	.	.
4G	1r	2d
4A	.	.
[2G	.	2B
=38	=38	=38
2G]	1A	2c
2F	.	2A
1G	1E	2B
.	.	4G
.	.	4A
=39	=39	=39
2r	1G	4B
.	.	4c
2.GG	.	1d
.	1D	.
4AA	.	.
4BB	.	4c
4C	.	4B
=40	=40	=40
2D	1F	2A
2BB	.	2.d
2C	2E	.
.	.	4c
2AA	4D	[2c
.	4C	.
=41	=41	=41
1GG	2D	2c]
.	2D	2B
[1Cl	[1Cl	[1cl
=42	=42	=42
00C]	00C]	00c]
==	==	==
*-	*-	*-
!!!system-decoration: [*]
!!!RDF**kern: i = editorial accidental
!!!RDF**kern: l = terminal long
!!!ENC: Benjamin Ory
!!!END: 2023/11/26
!!!EED: Benjamin Ory
!!!EEV: 2023/11/26
!!!YEC: Copyright 2023 Benjamin Ory, All Rights Reserved
!!!ONB: Translated from MusicXML on 2023/11/26
